src/icons/folder_mocks.svg

<?xml version="1.0" encoding="UTF-8" standalone="no"?>
<!-- Created with Inkscape (http://www.inkscape.org/) -->

<svg
   width="100.0px"
   height="100.0px"
   viewBox="0 0 100.0 100.0"
   version="1.1"
   id="SVGRoot"
   sodipodi:docname="folder_mocks.svg"
   inkscape:version="1.2.1 (9c6d41e410, 2022-07-14)"
   xmlns:inkscape="http://www.inkscape.org/namespaces/inkscape"
   xmlns:sodipodi="http://sodipodi.sourceforge.net/DTD/sodipodi-0.dtd"
   xmlns="http://www.w3.org/2000/svg"
   xmlns:svg="http://www.w3.org/2000/svg">
  <defs
     id="defs9" />
  <sodipodi:namedview
     id="namedview32486"
     pagecolor="#181825"
     bordercolor="#000000"
     borderopacity="0.24705882"
     inkscape:showpageshadow="2"
     inkscape:pageopacity="0"
     inkscape:pagecheckerboard="0"
     inkscape:deskcolor="#313244"
     inkscape:document-units="px"
     showgrid="true"
     inkscape:zoom="8.4359983"
     inkscape:cx="49.727369"
     inkscape:cy="56.543397"
     inkscape:window-width="1920"
     inkscape:window-height="1017"
     inkscape:window-x="1912"
     inkscape:window-y="-8"
     inkscape:window-maximized="1"
     inkscape:current-layer="SVGRoot"
     showborder="false">
    <inkscape:grid
       type="xygrid"
       id="grid32609" />
  </sodipodi:namedview>
  <path
     style="display:inline;fill:none;stroke:#ffffff;stroke-width:5;stroke-linecap:round;stroke-linejoin:round;stroke-dasharray:none;stroke-opacity:1;paint-order:fill markers stroke"
     d="m 44.713612,27.878444 v -2.974408 c 0,-7.559955 -7.294688,-7.559955 -7.294688,-7.559955 H 11.229791 c -8.7297083,0 -8.7297083,9.047159 -8.7297083,9.047159 v 48.210205 c 0,7.436021 7.7730283,8.05569 7.7730283,8.05569 H 40 m 54.627007,-37.656568 1.938764,-7.331362 c 1.832899,-8.827338 -7.30989,-9.542894 -7.30989,-9.542894 H 24.025395 c 0,0 -4.885741,1.206318 -6.746049,5.588037 -1.860305,4.381718 -5.750039,15.511281 -5.750039,15.511281"
     id="path5390"
     sodipodi:nodetypes="ccccscscccscsc"
     inkscape:label="folder_open" />
  <path
     style="display:none;fill:none;stroke:#ffffff;stroke-width:5;stroke-linecap:round;stroke-linejoin:round;stroke-dasharray:none;stroke-opacity:1;paint-order:fill markers stroke"
     d="m 24.023123,28.126179 h 54.285891 c 0,0 9.207079,0.247865 9.207079,9.542778 v 7.331208 M 40,82.656331 H 10.272291 c 0,0 -7.7722083,-0.61966 -7.7722083,-8.05559 V 26.39113 c 0,0 0,-9.047049 8.7287883,-9.047049 h 26.186366 c 0,0 7.293919,0 7.293919,7.559862 v 2.974372"
     id="path5390-2"
     sodipodi:nodetypes="ccscccscscsc"
     inkscape:label="folder_close" />
  <path
     fill="none"
     stroke="currentColor"
     stroke-linecap="round"
     stroke-linejoin="round"
     stroke-width="5.23864"
     d="M 49.754864,92.018519 H 60.448105 L 88.517872,63.948757 A 7.561269,7.561269 0 0 0 77.824618,53.255515 L 49.754864,81.325278 V 92.018519 M 75.151312,55.928824 85.844545,66.62207"
     id="path8623"
     style="stroke:#43c6d1;stroke-width:5;stroke-dasharray:none;stroke-opacity:1" />
</svg>

<svg clip-rule="evenodd" fill-rule="evenodd" stroke-linecap="round" stroke-linejoin="round" viewBox="0 0 100 100" xmlns="http://www.w3.org/2000/svg"><g fill="none" stroke-width="5"><path d="m24.023 28.126h54.286s9.207.248 9.207 9.543v7.331m-47.516 37.656h-29.728s-7.772-.619-7.772-8.055v-48.21s0-9.047 8.729-9.047h26.186s7.294 0 7.294 7.56v2.974" stroke="#fff"/><path d="m49.755 92.019h10.693l28.07-28.07c1.416-1.418 2.212-3.341 2.212-5.344 0-4.148-3.413-7.562-7.561-7.562-2.004 0-3.927.797-5.344 2.213l-28.07 28.069zm25.396-36.09 10.694 10.693" stroke="#43c6d1"/></g></svg>
